X:150
T:Tommy Coen's Reel
T:Christmas Eve
B:CRE2.140 (RÃÂÃÂÃÂÃÂ­l ThomÃÂÃÂÃÂÃÂ¡is UÃÂÃÂÃÂÃÂ­ Chomain)
F:file ID: cre.2/0150tommy_c_R
L:1/8
M:C
R:reel
Q:180
K:G
GE|DB,DE G2GA|(3BcB eB ABG2|ABGE DB,DE|G2BG ABGE|
DB,DE G2GA|(3BcB eB ABGA|BA (3AAA GEBE|ABGE G2:|
%B
GA|BABd e2eg|abge g2eg|a2ae gage|dedB AEGA|
BABd e2eg|bage g2eg|a2ge d2BG|ABGE G2:|
%C
dc|BG (3GGG dGBd|egg2 egdc|BG (3GGG dGBd|eA (3AAA eAGA|
BGG2 dGBd|egg2 egdg|bgaf gedB|ABGE G2:|

%%%

